kora-light/actions/scalable/fcitx-shuangpin.svg

<svg xmlns="http://www.w3.org/2000/svg" width="16" height="16" version="1.1">
 <defs>
  <style id="current-color-scheme" type="text/css">
   .ColorScheme-Text { color:#444444; } .ColorScheme-Highlight { color:#4285f4; }
  </style>
 </defs>
 <path style="fill:currentColor" class="ColorScheme-Text" d="M 2 0 C 0.892 0 0 0.892 0 2 L 0 14 C 0 15.108 0.892 16 2 16 L 14 16 C 15.108 16 16 15.108 16 14 L 16 2 C 16 0.892 15.108 0 14 0 L 2 0 z M 2 2 L 7.5488 2 L 7.498 2.5508 C 7.498 2.5508 7.1704 6.0697 6.2734 8.6797 C 6.8564 9.5497 7.4123 10.449 8.1113 11.689 L 7.2422 12.18 C 6.7032 11.23 6.2583 10.491 5.8203 9.8105 C 4.4263 12.931 2.4551 14.293 2.4551 14.293 L 1.8984 13.461 C 1.8984 13.461 3.8691 12.151 5.1621 8.8105 C 4.3971 7.7005 3.5274 6.5805 2.1094 4.8105 L 2.8906 4.1895 C 4.0716 5.6595 4.8636 6.6806 5.5586 7.6406 C 6.1096 5.7406 6.3567 3.64 6.4277 3 L 2 3 L 2 2 z M 8 2 L 14 2 L 14 2.5 C 14 4.65 13.167 7.4702 12.293 9.4102 C 12.182 9.6602 12.051 9.8696 11.926 10.1 C 12.55 11.19 13.386 12.22 14.77 13.332 L 14.143 14.111 C 12.861 13.077 11.996 12.071 11.34 11.051 C 9.9468 13.035 8.2363 14.084 8.2363 14.084 L 7.7188 13.229 C 7.7188 13.229 9.4991 12.13 10.787 10.09 C 10.449 9.4398 10.166 8.7798 9.9004 8.0898 C 9.1424 6.1398 8.6918 3.59 8.5898 3 L 8 3 L 8 2 z M 9.6074 3 C 9.7474 3.77 10.176 6.0305 10.834 7.7305 C 11.007 8.1805 11.185 8.5998 11.373 9.0098 C 12.13 7.3298 12.815 4.85 12.924 3 L 9.6074 3 z"/>
</svg>

<svg xmlns="http://www.w3.org/2000/svg" style="fill-rule:evenodd;clip-rule:evenodd;stroke-linejoin:round;stroke-miterlimit:2" width="100%" height="100%" version="1.1" viewBox="0 0 16 16" xml:space="preserve">
 <defs>
  <style id="current-color-scheme" type="text/css">
   .ColorScheme-Text { color:#444444; } .ColorScheme-Highlight { color:#4285f4; } .ColorScheme-NeutralText { color:#ff9800; } .ColorScheme-PositiveText { color:#4caf50; } .ColorScheme-NegativeText { color:#f44336; }
  </style>
 </defs>
 <path style="fill:currentColor;" class="ColorScheme-Text" d="M2,2l5.549,0l-0.051,0.551c0,-0 -0.328,3.519 -1.225,6.129c0.583,0.87 1.139,1.769 1.838,3.009l-0.869,0.491c-0.539,-0.95 -0.984,-1.689 -1.422,-2.37c-1.394,3.121 -3.365,4.483 -3.365,4.483l-0.557,-0.832c0,0 1.971,-1.31 3.264,-4.65c-0.765,-1.11 -1.635,-2.23 -3.053,-4l0.782,-0.621c1.181,1.47 1.973,2.491 2.668,3.451c0.551,-1.9 0.798,-4.001 0.869,-4.641l-4.428,0l-0,-1Zm6,0l6,0l0,0.5c0,2.15 -0.833,4.97 -1.707,6.91c-0.111,0.25 -0.242,0.46 -0.367,0.69c0.624,1.09 1.46,2.12 2.844,3.232l-0.627,0.779c-1.282,-1.034 -2.147,-2.04 -2.803,-3.06c-1.393,1.984 -3.104,3.033 -3.104,3.033l-0.517,-0.855c-0,0 1.78,-1.099 3.068,-3.139c-0.338,-0.65 -0.621,-1.31 -0.887,-2c-0.758,-1.95 -1.208,-4.5 -1.31,-5.09l-0.59,0l0,-1Zm1.607,1c0.14,0.77 0.569,3.031 1.227,4.731c0.173,0.45 0.351,0.869 0.539,1.279c0.757,-1.68 1.442,-4.16 1.551,-6.01l-3.317,0Z"/>
</svg>
